web/images/edit_post.svg

<?xml version="1.0" ?><svg height="16px" version="1.1" viewBox="0 0 16 16" width="16px" xmlns="http://www.w3.org/2000/svg" xmlns:sketch="http://www.bohemiancoding.com/sketch/ns" xmlns:xlink="http://www.w3.org/1999/xlink"><title/><defs/><g fill="none" fill-rule="evenodd" id="Icons with numbers" stroke="none" stroke-width="1"><g fill="#000000" id="Group" transform="translate(-384.000000, -192.000000)"><path d="M385,203.950806 L389,208 L385,208 Z M392,196 L396,200 L389.978638,207.044189 L386,203 Z M394.084619,193.781497 C394.709458,193.156658 395.90929,193.343426 396.764518,194.198654 L397.538782,194.972918 C398.394011,195.828147 398.580778,197.027979 397.95594,197.652817 L396.720394,198.888363 L392.849074,195.017043 Z M394.084619,193.781497" id="Triangle 313"/></g></g></svg>

<?xml version="1.0" encoding="utf-8"?>
<!-- Generator: Adobe Illustrator 16.0.0, SVG Export Plug-In . SVG Version: 6.00 Build 0)  -->
<!DOCTYPE svg PUBLIC "-//W3C//DTD SVG 1.1//EN" "http://www.w3.org/Graphics/SVG/1.1/DTD/svg11.dtd">
<svg version="1.1" id="Layer_1" xmlns:sketch="http://www.bohemiancoding.com/sketch/ns"
	 xmlns="http://www.w3.org/2000/svg" xmlns:xlink="http://www.w3.org/1999/xlink" x="0px" y="0px" width="16px" height="16px"
	 viewBox="0 0 16 16" enable-background="new 0 0 16 16" xml:space="preserve">
<title></title>
<g id="Icons_with_numbers">
	<g id="Group" transform="translate(-384.000000, -192.000000)">
		<path id="Triangle_313" fill="none" stroke="#B05B27" stroke-miterlimit="10" d="M385,203.951l4,4.049h-4V203.951z M392,196l4,4
			l-6.021,7.044L386,203L392,196z M394.084,193.781c0.625-0.625,1.825-0.438,2.681,0.417l0.774,0.774
			c0.855,0.855,1.041,2.055,0.417,2.68l-1.235,1.235l-3.871-3.871L394.084,193.781z"/>
	</g>
</g>
</svg>
